static/img/kroki/b42409f9f00aab13e5e647194b3c9042.svg

<?xml version="1.0" encoding="us-ascii" standalone="no"?><svg xmlns="http://www.w3.org/2000/svg" xmlns:xlink="http://www.w3.org/1999/xlink" contentStyleType="text/css" height="252px" preserveAspectRatio="none" style="width:377px;height:252px;" version="1.1" viewBox="0 0 377 252" width="377px" zoomAndPan="magnify"><defs/><g><!--class azure_cosmos_db_account--><g id="elem_azure_cosmos_db_account"><rect codeLine="23" fill="#3D176E" height="39.7891" id="azure_cosmos_db_account" rx="2.5" ry="2.5" style="stroke:#000D19;stroke-width:0.5;" width="261" x="58" y="7"/><ellipse cx="73" cy="26.8945" fill="#ADD1B2" rx="11" ry="11" style="stroke:#181818;stroke-width:1.0;"/><path d="M75.9688,32.5352 Q75.3906,32.832 74.75,32.9727 Q74.1094,33.1289 73.4063,33.1289 Q70.9063,33.1289 69.5781,31.4883 Q68.2656,29.832 68.2656,26.707 Q68.2656,23.582 69.5781,21.9258 Q70.9063,20.2695 73.4063,20.2695 Q74.1094,20.2695 74.75,20.4258 Q75.4063,20.582 75.9688,20.8789 L75.9688,23.5977 Q75.3438,23.0195 74.75,22.7539 Q74.1563,22.4727 73.5313,22.4727 Q72.1875,22.4727 71.5,23.5508 Q70.8125,24.6133 70.8125,26.707 Q70.8125,28.8008 71.5,29.8789 Q72.1875,30.9414 73.5313,30.9414 Q74.1563,30.9414 74.75,30.6758 Q75.3438,30.3945 75.9688,29.8164 L75.9688,32.5352 Z " fill="#000000"/><text fill="#D9B8FF" font-family="Helvetica" font-size="17" lengthAdjust="spacing" textLength="219" x="92" y="32.7798">azure_cosmos_db_account</text></g><!--class azure_cosmos_db_cassandra_keyspace--><g id="elem_azure_cosmos_db_cassandra_keyspace"><rect codeLine="26" fill="#3D176E" height="39.7891" id="azure_cosmos_db_cassandra_keyspace" rx="2.5" ry="2.5" style="stroke:#000D19;stroke-width:0.5;" width="363" x="7" y="106.79"/><ellipse cx="22" cy="126.6845" fill="#ADD1B2" rx="11" ry="11" style="stroke:#181818;stroke-width:1.0;"/><path d="M24.9688,132.3252 Q24.3906,132.622 23.75,132.7627 Q23.1094,132.9189 22.4063,132.9189 Q19.9063,132.9189 18.5781,131.2783 Q17.2656,129.622 17.2656,126.497 Q17.2656,123.372 18.5781,121.7158 Q19.9063,120.0595 22.4063,120.0595 Q23.1094,120.0595 23.75,120.2158 Q24.4063,120.372 24.9688,120.6689 L24.9688,123.3877 Q24.3438,122.8095 23.75,122.5439 Q23.1563,122.2627 22.5313,122.2627 Q21.1875,122.2627 20.5,123.3408 Q19.8125,124.4033 19.8125,126.497 Q19.8125,128.5908 20.5,129.6689 Q21.1875,130.7314 22.5313,130.7314 Q23.1563,130.7314 23.75,130.4658 Q24.3438,130.1845 24.9688,129.6064 L24.9688,132.3252 Z " fill="#000000"/><text fill="#D9B8FF" font-family="Helvetica" font-size="17" lengthAdjust="spacing" textLength="321" x="41" y="132.5698">azure_cosmos_db_cassandra_keyspace</text></g><!--class azure_cosmos_db_cassandra_table--><g id="elem_azure_cosmos_db_cassandra_table"><rect codeLine="29" fill="#3D176E" height="39.7891" id="azure_cosmos_db_cassandra_table" rx="2.5" ry="2.5" style="stroke:#000D19;stroke-width:0.5;" width="329" x="24" y="206.58"/><ellipse cx="39" cy="226.4745" fill="#ADD1B2" rx="11" ry="11" style="stroke:#181818;stroke-width:1.0;"/><path d="M41.9688,232.1152 Q41.3906,232.412 40.75,232.5527 Q40.1094,232.7089 39.4063,232.7089 Q36.9063,232.7089 35.5781,231.0683 Q34.2656,229.412 34.2656,226.287 Q34.2656,223.162 35.5781,221.5058 Q36.9063,219.8495 39.4063,219.8495 Q40.1094,219.8495 40.75,220.0058 Q41.4063,220.162 41.9688,220.4589 L41.9688,223.1777 Q41.3438,222.5995 40.75,222.3339 Q40.1563,222.0527 39.5313,222.0527 Q38.1875,222.0527 37.5,223.1308 Q36.8125,224.1933 36.8125,226.287 Q36.8125,228.3808 37.5,229.4589 Q38.1875,230.5214 39.5313,230.5214 Q40.1563,230.5214 40.75,230.2558 Q41.3438,229.9745 41.9688,229.3964 L41.9688,232.1152 Z " fill="#000000"/><text fill="#D9B8FF" font-family="Helvetica" font-size="17" lengthAdjust="spacing" textLength="287" x="58" y="232.3598">azure_cosmos_db_cassandra_table</text></g><!--link azure_cosmos_db_account to azure_cosmos_db_cassandra_keyspace--><g id="link_azure_cosmos_db_account_azure_cosmos_db_cassandra_keyspace"><path codeLine="32" d="M188.5,47.22 C188.5,64.36 188.5,83.27 188.5,100.41 " fill="none" id="azure_cosmos_db_account-to-azure_cosmos_db_cassandra_keyspace" style="stroke:#1A83AF;stroke-width:2.0;"/><polygon fill="#1A83AF" points="188.5,106.41,192.5,97.41,188.5,101.41,184.5,97.41,188.5,106.41" style="stroke:#1A83AF;stroke-width:2.0;"/></g><!--link azure_cosmos_db_cassandra_keyspace to azure_cosmos_db_cassandra_table--><g id="link_azure_cosmos_db_cassandra_keyspace_azure_cosmos_db_cassandra_table"><path codeLine="33" d="M188.5,147.01 C188.5,164.15 188.5,183.06 188.5,200.2 " fill="none" id="azure_cosmos_db_cassandra_keyspace-to-azure_cosmos_db_cassandra_table" style="stroke:#1A83AF;stroke-width:2.0;"/><polygon fill="#1A83AF" points="188.5,206.2,192.5,197.2,188.5,201.2,184.5,197.2,188.5,206.2" style="stroke:#1A83AF;stroke-width:2.0;"/></g><!--SRC=[ZP9DQy9048Rl-HKBdWLJQTLB8HMalKYflPKI9hkpkYJPbTcnegN_lV6ZPPiqckky3_C-i-pAA1HOhdadIYmp91_vtDWr49GY8NBRgIiSYPxMe8UZUZXpbgy2SoXHF6BnWMmar8dNbP6vHU_5JH0zWCoNv3PMdTOpWVLLX9O3Qbg0zmapcMp36CYeIJRMkaxMb_Q6AXxTOGDpf93Eo60mKF6aZbojkdZtBx4mUnHn-6XpnzZGR5GSgOkM1oAGR1pwaxSwFeDInYx5RJ1xEJcHHVepNwn0kUs1rb3uiCOp4ZhUhN7Qk0edOwL7_y9FRN0a3qydOByXJANpfVEfobAGic9PV4RHLmiYgo5OHP3ckAj-aiHkD4DMdD6srlvRBqx6msJsth_lq1jrKEkuyYWNVGC0]--></g></svg>

<svg xmlns="http://www.w3.org/2000/svg" width="377" height="252" viewBox="0 0 377 252"><rect width="261" height="39.789" x="58" y="7" fill="#3D176E" rx="2.5" ry="2.5" style="stroke:#000d19;stroke-width:.5"/><circle cx="73" cy="26.895" r="11" fill="#ADD1B2" style="stroke:#181818;stroke-width:1"/><path d="M75.969 32.535q-.578.297-1.219.438-.64.156-1.344.156-2.5 0-3.828-1.64-1.312-1.657-1.312-4.782t1.312-4.781q1.328-1.656 3.828-1.656.703 0 1.344.156.656.156 1.219.453v2.719q-.625-.578-1.219-.844-.594-.281-1.219-.281-1.344 0-2.031 1.078-.687 1.062-.687 3.156t.687 3.172q.688 1.062 2.031 1.062.625 0 1.219-.265.594-.281 1.219-.86z"/><text x="92" y="32.78" fill="#D9B8FF" font-family="Helvetica" font-size="17" textLength="219">azure_cosmos_db_account</text><rect width="363" height="39.789" x="7" y="106.79" fill="#3D176E" rx="2.5" ry="2.5" style="stroke:#000d19;stroke-width:.5"/><circle cx="22" cy="126.684" r="11" fill="#ADD1B2" style="stroke:#181818;stroke-width:1"/><path d="M24.969 132.325q-.578.297-1.219.438-.64.156-1.344.156-2.5 0-3.828-1.64-1.312-1.657-1.312-4.782t1.312-4.781q1.328-1.656 3.828-1.656.703 0 1.344.156.656.156 1.219.453v2.719q-.625-.579-1.219-.844-.594-.281-1.219-.281-1.343 0-2.031 1.078-.687 1.062-.687 3.156t.687 3.172q.688 1.062 2.031 1.062.625 0 1.219-.265.594-.281 1.219-.86z"/><text x="41" y="132.57" fill="#D9B8FF" font-family="Helvetica" font-size="17" textLength="321">azure_cosmos_db_cassandra_keyspace</text><rect width="329" height="39.789" x="24" y="206.58" fill="#3D176E" rx="2.5" ry="2.5" style="stroke:#000d19;stroke-width:.5"/><circle cx="39" cy="226.475" r="11" fill="#ADD1B2" style="stroke:#181818;stroke-width:1"/><path d="M41.969 232.115q-.578.297-1.219.438-.64.156-1.344.156-2.5 0-3.828-1.64-1.312-1.657-1.312-4.782t1.312-4.781q1.328-1.656 3.828-1.656.703 0 1.344.156.656.156 1.219.453v2.719q-.625-.578-1.219-.844-.594-.281-1.219-.281-1.343 0-2.031 1.078-.687 1.062-.687 3.156t.687 3.172q.688 1.062 2.031 1.062.625 0 1.219-.265.594-.281 1.219-.86z"/><text x="58" y="232.36" fill="#D9B8FF" font-family="Helvetica" font-size="17" textLength="287">azure_cosmos_db_cassandra_table</text><path fill="none" d="M188.5 47.22v53.19" style="stroke:#1a83af;stroke-width:2"/><path fill="#1A83AF" d="m188.5 106.41 4-9-4 4-4-4z" style="stroke:#1a83af;stroke-width:2"/><path fill="none" d="M188.5 147.01v53.19" style="stroke:#1a83af;stroke-width:2"/><path fill="#1A83AF" d="m188.5 206.2 4-9-4 4-4-4z" style="stroke:#1a83af;stroke-width:2"/></svg>
